X:1
T:Title
%%score ( 1 2 ) { 3 | 4 }
L:1/8
Q:1/4=100
M:6/8
K:E
V:1 treble nm="Grand Piano, Soprano"
V:2 treble 
V:3 bass nm="Choir Pad, Chorleywood, 86.86.88"
V:4 bass 
V:1
 z3 z .B2 | [EG] [DF]2 [DG] E2 | [FB] [Ee]2 [Ee]ed | [Fc] B2- [EB-][F-B]>F | [FA] [EG]2 [EG]BA | %5
 [EG] [DF]2 [DG] [CE]2 | [^B,D]CE [EA] [DG]2 | [DF] E2- E2- E/ z/ | z .F2 z3 | [EG]^AB [Ec] [DB]2 | %10
 [EB]cd [Ee] [EB]2 | [EG]FG [DF] E2- | E6 |] %13
V:2
 E [EG]2 [EG]F-[FA] | x6 | z3 z F2 | z D2 z3 | z3 z F2 | x6 | x6 | x6 | EB,-[B,G] [DA] [EG]2 | %9
 z E2 z3 | z E2 z3 | z C2 z3 | x6 |] %13
V:3
 G, B,2 B, B,2 | B, B,2 A, G,2 | F, G,2 G, ^A,2 | ^A, B,2- B,2- B,/ z/ | B, B,2 B, B,2 | %5
 B, B,2 G, G,2 | F, E,2 C B,2 | A, G,2- G,2- G,/ z/ | G, B,2 B, B,2 | B, C2 ^A, B,2 | %10
 B, A,2 C G,2 | B, ^A,2 =A, G,2- | G,6 |] %13
V:4
 E, E,2 E, D,2 | E, B,,2 B,, E,2 | D, C,2 C, F,2 | F, B,,2 C, D,2 | D, E,2 E, D,2 | %5
 E, B,,2 ^B,, C,2 | G,, A,,2 F,, B,,2 | B,, E,2- E,2- E,/ z/ | E, D,2 B,, E,2 | D, C,2 F, B,,2 | %10
 .G,3 A,, B,,2 | B,, B,,2 B,, E,2- | E,6 |] %13

